www/assets/icons/flight_takeoff.svg

<svg width="24" height="24" viewBox="0 0 24 24" xmlns="http://www.w3.org/2000/svg" fill='currentColor'><path d="M2.51999 18.7149H21.52V20.7149H2.51999V18.7149ZM22.09 9.35491C21.88 8.55491 21.05 8.07491 20.25 8.29491L14.94 9.71491L8.03999 3.28491L6.10999 3.79491L10.25 10.9649L5.27999 12.2949L3.30999 10.7549L1.85999 11.1449L4.44999 15.6349C4.44999 15.6349 11.57 13.7349 21.02 11.2049C21.83 10.9749 22.3 10.1549 22.09 9.35491Z"/></svg>

<svg xmlns="http://www.w3.org/2000/svg" width="24" height="24" viewBox="0 0 24 24" fill='currentColor'><path d="M2.52 18.715h19v2h-19zm19.57-9.36c-.21-.8-1.04-1.28-1.84-1.06l-5.31 1.42-6.9-6.43-1.93.51 4.14 7.17-4.97 1.33-1.97-1.54-1.45.39 2.59 4.49s7.12-1.9 16.57-4.43c.81-.23 1.28-1.05 1.07-1.85"/></svg>
